X:1
T:Ballad of the Triangle Fire
M:4/4
L:1/8
K:F
 D/2D/2| DA AG F D2 C| A,D C D- D3 A|A-d ded/2-c/2 A2 G| Ac cG A3|\
 A| Ad d e/2e/2d/2-c/2 A2- G| A c2c/2-G/2 A3 D/2E/2| F A/2A/2 AA Gc cA|\
F-D DC D3||
